static/manufacturing.svg

<svg xmlns="http://www.w3.org/2000/svg" width="800" height="800" fill="currentColor" viewBox="0 0 24 24"><path d="M22 1h-4a1 1 0 0 0-1 1v7h-2V7a1 1 0 0 0-1.45-.9L9 8.39V7a1 1 0 0 0-1.45-.9l-6 3A1 1 0 0 0 1 10v12a1 1 0 0 0 1 1h20a1 1 0 0 0 1-1V2a1 1 0 0 0-1-1m-1 2v2h-2V3ZM3 21V10.62l4-2V10a1 1 0 0 0 1.45.9L13 8.62V10a1 1 0 0 0 1 1h4a1 1 0 0 0 1-1V7h2v14Zm2-8h3v2H5Zm5 0h4v2h-4Zm6 0h3v2h-3ZM5 17h3v2H5Zm5 0h4v2h-4Zm6 0h3v2h-3Z"/></svg>

<?xml version="1.0" encoding="utf-8"?><!-- Uploaded to: SVG Repo, www.svgrepo.com, Generator: SVG Repo Mixer Tools -->
<svg fill="#000000" width="800px" height="800px" viewBox="0 0 24 24" xmlns="http://www.w3.org/2000/svg"><path d="M22,1H18a1,1,0,0,0-1,1V9H15V7a1,1,0,0,0-1.447-.895L9,8.382V7a1,1,0,0,0-1.447-.895l-6,3A1,1,0,0,0,1,10V22a1,1,0,0,0,1,1H22a1,1,0,0,0,1-1V2A1,1,0,0,0,22,1ZM21,3V5H19V3ZM3,21V10.618l4-2V10a1,1,0,0,0,1.447.895L13,8.618V10a1,1,0,0,0,1,1h4a1,1,0,0,0,1-1V7h2V21Zm2-8H8v2H5Zm5,0h4v2H10Zm6,0h3v2H16ZM5,17H8v2H5Zm5,0h4v2H10Zm6,0h3v2H16Z"/></svg>
